X:4194
T:Miko Doyle's
T:Old Favourite, The
O:england
R:slide
H:Played in G or in A
D:Sean Ryan: Siuil Uait
M:6/8
K:G
~B3 BAB|dBA G2d|ded ded|ded B2A|
~B3 BAB|dBA G2d|dge dBA|1 GAG G2A:|2 GAG GBd||
|:~g3 fgf|efe d2B|ded ded|ded B2d|
~g3 fgf|efe d2B|1 dge dBA|GAG GBd:|2 dge dge|dge dBA||
"variations"
|:B2B BAG|dBA G2d|ded d2B|ded B2A|
B2B BAG|dBA G2d|ded B2A|1 G3 G2A:|2 G3 GBd||
|:~g3 fgf|efe d2B|ded d2B|ded B2A|
~g3 fgf|efe d2B|ded B2A|1 G3 GBd:|2 G3 G2A||
K:A
c2c cBc|ecB A2e|efe efe|efe c2B|
c2c cBc|ecB A2e|eaf ecB|1 ABA A2B:|2 ABA Ace||
|:~a3 gag|fgf e2c|efe efe|efe c2e|
~a3 gag|fgf e2c|1 eaf ecB|ABA Ace:|2 eaf eaf|eaf ecB||


